frontend/public/icons/tokyo/2_Nerima.svg

<?xml version="1.0"?>
<svg width="500" height="500" xmlns="http://www.w3.org/2000/svg" xmlns:svg="http://www.w3.org/2000/svg">
 <defs>
  <clipPath id="a">
   <path d="m0,0l500,0l0,200l-500,0l0,-200zm0,300l500,0l0,200l-500,0l0,-200z" id="svg_1"/>
  </clipPath>
 </defs>
 <g class="layer">
  <title>Layer 1</title>
  <g clip-path="url(#a)" id="svg_2">
   <path d="m240,5l-150,490l150,-105l150,105" fill="#000000" id="svg_3"/>
  </g>
  <path d="m40,150l300,0a120,120 180 0 1 0,240l-300,0l0,-110l300,0a10,10 180 0 0 0,-20l-300,0l0,-110" fill="#000000" id="svg_4"/>
 </g>
</svg>

<svg xmlns="http://www.w3.org/2000/svg" width="500" height="500"><defs><clipPath id="a"><path d="M0 0h500v200H0zM0 300h500v200H0z"/></clipPath></defs><g clip-path="url(#a)"><path fill="#636" d="M240 5 90 495l150-105 150 105"/></g><path fill="#636" d="M40 150h300a120 120 180 0 1 0 240H40V280h300a10 10 180 0 0 0-20H40V150"/></svg>
